public/images/icons/32x32/newsletter_32_purple.svg

<svg height="32" viewBox="0 0 32 32" width="32" xmlns="http://www.w3.org/2000/svg"><path d="m10 14c.2765 0 .5.2235.5.5 0 .2765-.2235.5-.5.5h-9.501c-.2755 0-.499-.2235-.499-.5 0-.2765.2235-.5.499-.5zm9.5-10.4995c.2765 0 .5.2235.5.5 0 .2765-.2235.5-.5.5h-12c-.2755 0-.499-.2235-.499-.5 0-.2765.2235-.5.499-.5zm0 3.4995c.2765 0 .5.224.5.5 0 .276-.2235.5-.5.5l-19.001.0005c-.2755 0-.499-.224-.499-.5005 0-.2765.2235-.5.499-.5zm0-7c.2765 0 .5.224.5.5005 0 .276-.2235.5-.5.5h-12c-.2755 0-.499-.224-.499-.5 0-.2765.2235-.5005.499-.5005zm0 10.5c.2765 0 .5.2235.5.5 0 .2765-.2235.5-.5.5l-19.001.0005c-.2755 0-.499-.224-.499-.5 0-.2765.2235-.5005.499-.5005zm-15-6.45c0 .2485-.201.45-.45.45h-3.6c-.249 0-.45-.2015-.45-.45v-3.6c0-.2485.201-.45.45-.45h3.6c.249 0 .45.2015.45.45z" fill="#1E1169" transform="translate(6 9)"/></svg>

<svg xmlns="http://www.w3.org/2000/svg" width="32" height="32" viewBox="0 0 32 32">
  <path fill="#1E1169" d="M10 14C10.2765 14 10.5 14.2235 10.5 14.5L10.5 14.5C10.5 14.7765 10.2765 15 10 15L10 15 .499 15C.2235 15 0 14.7765 0 14.5L0 14.5C0 14.2235.2235 14 .499 14L.499 14 10 14 10 14zM19.5 3.5005C19.7765 3.5005 20 3.724 20 4.0005L20 4.0005C20 4.277 19.7765 4.5005 19.5 4.5005L19.5 4.5005 7.5 4.5005C7.2245 4.5005 7.001 4.277 7.001 4.0005L7.001 4.0005C7.001 3.724 7.2245 3.5005 7.5 3.5005L7.5 3.5005 19.5 3.5005 19.5 3.5005zM19.5 7C19.7765 7 20 7.224 20 7.5L20 7.5C20 7.776 19.7765 8 19.5 8L19.5 8 .499 8.0005C.2235 8.0005 0 7.7765 0 7.5L0 7.5C0 7.2235.2235 7 .499 7L.499 7 19.5 7 19.5 7zM19.5 0C19.7765 0 20 .224 20 .5005L20 .5005C20 .7765 19.7765 1.0005 19.5 1.0005L19.5 1.0005 7.5 1.0005C7.2245 1.0005 7.001.7765 7.001.5005L7.001.5005C7.001.224 7.2245 0 7.5 0L7.5 0 19.5 0 19.5 0zM19.5 10.5C19.7765 10.5 20 10.7235 20 11L20 11C20 11.2765 19.7765 11.5 19.5 11.5L19.5 11.5.499 11.5005C.2235 11.5005 0 11.2765 0 11.0005L0 11.0005C0 10.724.2235 10.5.499 10.5L.499 10.5 19.5 10.5 19.5 10.5zM4.5 4.05C4.5 4.2985 4.299 4.5 4.05 4.5L.45 4.5C.201 4.5 0 4.2985 0 4.05L0 .45C0 .2015.201 0 .45 0L4.05 0C4.299 0 4.5.2015 4.5.45L4.5 4.05z" transform="translate(6 9)"/>
</svg>
